X:1
T:Title
%%score { ( 1 3 ) | ( 2 4 ) }
L:1/8
M:4/4
K:F
V:1 treble nm="Grand Piano"
V:3 treble 
V:2 bass 
V:4 bass 
V:1
 z4 z[Q:1/4=84] C/C/ CF | A6 z2 | c6 z2 | A6 z2 | G6 z2 | A6 z2 | d6 z2 | c6 z2 |[M:5/8] F-F- F3 | %9
[M:3/8] c/c/cA |[M:4/4] f6 z2 | c6 z2 | B6 z2 | G6 z2 | A6 z2 | d6 z2 | c6 z2 |[M:5/8] F-F- F3 |] %18
V:2
 z8 | z [F,C]/[F,C]/ [F,C][F,C] .[F,C]2 z2 | z [F,A,]/[F,A,]/ [F,A,][F,A,] .[F,A,]2 z2 | %3
 z [F,C]/[F,C]/ [F,C][F,C] [F,C][F,CF]/[F,CF]/ [E,C][D,=B,D] | [C,C][C,C]/[C,C]/ G,,G,, .C,2 z2 | %5
 z [F,C]/[F,C]/ [F,C][F,C] .[F,C]2 z2 | z [B,,B,]/[B,,B,]/ [B,,B,][B,,B,] .[B,,B,]2 z2 | %7
 z [C,A,]/[C,A,]/ [C,A,][C,A,] [C,A,]C,/C,/ C,C, |[M:5/8] z A,/A,/B, B,A, |[M:3/8] z3 | %10
[M:4/4] z [F,C]/[F,C]/ [F,C][F,C] .[F,C]2 z2 | z [F,F]/[F,F]/ [F,F][F,F] .[F,F]2 z2 | %12
 z B,,/B,,/ B,,B,, B,,[B,,B,]/[B,,B,]/ [F,A,][F,C] | [C,C][C,C]/[C,C]/ [C,C][C,C] .[C,C]2 z2 | %14
 z [F,C]/[F,C]/ [F,C][F,C] .[F,C]2 z2 | z [B,,B,]/[B,,B,]/ [B,,B,][B,,B,] .[B,,B,]2 z2 | %16
 z [C,A,]/[C,A,]/ [C,A,][C,A,] [C,A,]C,/C,/ C,C, |[M:5/8] z A,/A,/B, B,A, |] %18
V:3
 x8 | z F/F/ FF FA/A/ GF | z F/F/ FF Fc/c/ dc | z F/F/ FF FA/A/ GF | EE/E/ [=B,D][DF] [CE]C/C/ CF | %5
 z F/F/ FF FA/A/ GF | z F/F/ FF Fd/d/ df | z F/F/ FF F[DFB]/[DFB]/ [CFA][B,EG] | %8
[M:5/8] A,C/C/D DC |[M:3/8] x3 |[M:4/4] z A/A/ AA Af/f/ ed | z A/A/ AA Ac/c/ cA | %12
 z [DF]/[DF]/ [DF][DF] [DF][Fd]/[Fd]/ [Fc][FA] | EE/E/ EE EC/C/ CF | z F/F/ FF FA/A/ GF | %15
 z F/F/ FF Fd/d/ df | z F/F/ FF F[DFB]/[DFB]/ [CFA][B,EG] |[M:5/8] A,C/C/D DC |] %18
V:4
 x8 | x8 | x8 | x8 | x8 | x8 | x8 | x8 |[M:5/8] F,-F,- F,3 |[M:3/8] x3 |[M:4/4] x8 | x8 | x8 | x8 | %14
 x8 | x8 | x8 |[M:5/8] F,-F,- F,3 |] %18

